icons/media/forward-5.svg

<svg width="32" height="32" viewBox="0 0 32 32" fill="none" xmlns="http://www.w3.org/2000/svg">
<path fill-rule="evenodd" clip-rule="evenodd" d="M26.2076 6.70736L26.9147 6.00025L26.2076 5.29314L21.2074 0.292892L19.7931 1.7071L23.0863 5.00024L15.5005 5.00024V5C8.59693 5 3.00049 10.5964 3.00049 17.5C3.00049 24.4036 8.59693 30 15.5005 30C22.404 30 28.0005 24.4036 28.0005 17.5C28.0005 15.8982 27.6987 14.3646 27.148 12.9544L25.285 13.682C25.7466 14.864 26.0005 16.1511 26.0005 17.5C26.0005 23.299 21.2995 28 15.5005 28C9.7015 28 5.00049 23.299 5.00049 17.5C5.00049 11.7011 9.70137 7.00013 15.5002 7V7.00024L23.0863 7.00024L19.7931 10.2934L21.2074 11.7076L26.2076 6.70736ZM14.0002 13H13.0002V14V17.5C13.0002 18.3284 13.6718 19 14.5002 19H17.0002V21H13.0002V23H17.5002C18.3287 23 19.0002 22.3284 19.0002 21.5V18.5C19.0002 17.6716 18.3287 17 17.5002 17H15.0002V15H19.0002V13H14.0002Z" fill="black"/>
</svg>

<svg width="32" height="32" viewBox="0 0 32 32" xmlns="http://www.w3.org/2000/svg">
    <path fill-rule="evenodd" d="M26.208 6.707L26.915 6l-.707-.707-5-5-1.415 1.414L23.086 5h-7.585C8.597 5 3 10.596 3 17.5S8.596 30 15.5 30C22.404 30 28 24.404 28 17.5c0-1.602-.302-3.135-.853-4.546l-1.863.728A10.47 10.47 0 0126 17.5C26 23.299 21.3 28 15.5 28 9.701 28 5 23.299 5 17.5S9.701 7 15.5 7h7.586l-3.293 3.293 1.414 1.415 5-5zM14 13l-1 1v4l1 1h3v2h-4v2h5l1-1v-4l-1-1h-3v-2h4v-2h-5z"/>
</svg>
